!!!CDT:
!!!PTL: Fiori musicali, libro secondo
!!!PPP: Venice
!!!PPR: Vincenzi & Amadino
!!!PDT: 1588
!!!PUB-format: anthology
!!!RISM: 1588-20
!!!rime: 433
!!!AGN: Madrigal
!!!SCT: Trm0433b
!!!SCA: Trm0433b
!!!original-voices: 3
!!!extant-voices: 3
!!!complete: Y
!!!final: A
!!!COM: Stivori, Francesco
!!!OTL: Se tu mi lasci, perfida, tuo danno
**kern	**text	**kern	**text	**kern	**text
*part3	*part3	*part2	*part2	*part1	*part1
*staff3	*staff3	*staff2	*staff2	*staff1	*staff1
*I"Basso	*	*I"Tenore	*	*I"Canto	*
*I'B	*	*I'T	*	*I'C	*
*oclefC3	*	*oclefC2	*	*oclefG2	*
*clefGv2	*	*clefG2	*	*clefG2	*
*k[]	*	*k[]	*	*k[]	*
*omet(C)	*	*omet(C)	*	*omet(C)	*
*M4/2	*	*M4/2	*	*M4/2	*
=1	=1	=1	=1	=1	=1
0r	.	1a	Se	2r	.
.	.	.	.	1ee	Se
.	.	2.g	tu	.	.
.	.	.	.	[2dd	tu
.	.	4d	mi	.	.
=2	=2	=2	=2	=2	=2
0r	.	2f	la-	4dd]	.
.	.	.	.	4a	mi
.	.	4e	-sci,	2cc	la-
.	.	2a	per-	.	.
.	.	.	.	4b	-sci,
.	.	4g#i	-fi-	2ee	per-
.	.	4a	-da,	.	.
.	.	4b	tuo	4dd	-fi-
=3	=3	=3	=3	=3	=3
1e	Se	4cc	dan-	4ee	-da,
.	.	4b	.	4gg	tuo
.	.	4b	.	2gg	dan-
.	.	8aL	.	.	.
.	.	8gnXiJ	.	.	.
2.d	tu	2a	.	4ff	-no,
.	.	.	.	4dd	<Se
.	.	4a	-no,	4ff	tu
4A	mi	[4a	<Se	4cc	mi
=4	=4	=4	=4	=4	=4
2c	la-	4a]	.	2ee	la-
.	.	4e	tu	.	.
4B	-sci,	4g	mi	2dd	-sci,
2d	per-	4f	la-	.	.
.	.	4e	-sci,	4.ee	per-
4c#X	-fi-	2a	per-	.	.
.	.	.	.	8ee	-fi-
4d	-da,	.	.	4ff	-da,
4e	tuo	4g#i	-fi-	[4ee	tuo
=5	=5	=5	=5	=5	=5
2f	dan-	4.a	-da,	4ee]	.
.	.	.	.	4dd	dan-
.	.	8b	tuo	.	.
1.e	-no:	2cc	dan-	4ee	-no:>
.	.	.	.	4gg	Non
.	.	4b	.	4gg	ti
.	.	4b	-no:>	4gg	pen-
.	.	4gnXi	Non	4gg	-sar
.	.	4a	ti	8ffL	.
.	.	.	.	8eeJ	.
=6	=6	=6	=6	=6	=6
4r	.	4b	pen-	8ddL	.
.	.	.	.	8gJ	.
4e	Non	4g	-sar	2gg	che
4c	ti	2a	che	.	.
4d	pen-	.	.	4ff#X	si-
4e	-sar	2g	sia	8ggL	.
.	.	.	.	8ffnXi	.
4e	che	.	.	8ee	.
.	.	.	.	8ddJ	.
[2a	sia	2r	.	[2cc	.
=7	=7	=7	=7	=7	=7
2a]	.	2.e	Mi-	2cc]	.
2g#X	Mi-	.	.	1b	-a
.	.	4e	-se-	.	.
2.e	-se-	2g#X	-ra	.	.
.	.	[2g#i	sen-	[2b	Mi-
4e	-ra	.	.	.	.
=8	=8	=8	=8	=8	=8
2e	sen-	4g#]	.	4b]	.
.	.	8f#iL	-za	4b	-se-
.	.	8g#XJ	.	.	.
1d	-za	1a	.	2dd	-ra
.	.	.	.	2.dd	sen-
2B	te	2g#X	.	.	.
.	.	.	.	4dd	-za
=9	=9	=9	=9	=9	=9
4A	la	2a	te	2cc	te
4a	vi-	.	.	.	.
4g	-ta	2r	.	4r	.
4f	mi-	.	.	4aa	la
4e	.	4r	.	4gg	vi-
4d	.	4dd	la	4ff	-ta
[2e	.	4cc	vi-	4ee	mi-
.	.	[4b	-ta	4dd	.
=10	=10	=10	=10	=10	=10
1e]	.	4b]	.	4cc	.
.	.	2a	mi-	8bL	.
.	.	.	.	8aJ	.
.	.	.	.	2b	.
.	.	4g#X	.	.	.
1A	-a.	1a	-a.	1a	-a.
=11	=11	=11	=11	=11	=11
0r	.	2r	.	1r	.
.	.	2.e	Mi-	.	.
.	.	.	.	2r	.
.	.	4e	-se-	.	.
.	.	2e	-ro	[2b	Mi-
=12	=12	=12	=12	=12	=12
2r	.	1g	ben	4b]	.
.	.	.	.	4b	-se-
2.B	Mi-	.	.	2b	-ro
.	.	1f#X	sa-	2.dd	ben
4B	-se-	.	.	.	.
2B	-ro	.	.	.	.
.	.	.	.	8ccL	.
.	.	.	.	8bJ	.
=13	=13	=13	=13	=13	=13
2d	ben	2.f#i	-re-	1.a	.
2d	sa-	.	.	.	.
.	.	4g	.	.	.
1f	-re-	[1a	.	.	.
.	.	.	.	2dd	sa-
=14	=14	=14	=14	=14	=14
1e	-i	2a]	.	2cc	-re-
.	.	2g#X	.	2b	-i
2A	Se	2a	-i	2.a	Se
2d	mi-	2fnXi	Se	.	.
.	.	.	.	4a	mi-
=15	=15	=15	=15	=15	=15
1c#X	-se-	1e	mi-	1a	-se-
4d	-ria	4f	-se-	4a	-ria
4A	sti-	4a	-ria	4cc	sti-
[2e	-mas-	[2gnXi	sti-	[2b	-mas-
=16	=16	=16	=16	=16	=16
4e]	.	4g]	.	4b]	.
4cnXi	-si e	4cc	-mas-	4ee	-si e
4g	non	4b	-si e	2.dd	non
4d	ven-	4a	non	.	.
1e	-tu-	4g#X	ven-	.	.
.	.	2a	-tu-	4cc	ven-
.	.	.	.	2b	-tu-
.	.	4g#i	.	.	.
=17	=17	=17	=17	=17	=17
2A	-ra	4a	-ra	2.cc	-ra
.	.	4.a	Per-	.	.
2r	.	.	.	.	.
.	.	8a	-der	.	.
.	.	4gnXi	chi	4.ee	Per-
2r	.	2f	non	.	.
.	.	.	.	8ee	-der
.	.	.	.	4dd	chi
4r	.	4e	mi	4cc	non
4c	E	[4a	cu-	4cc	mi
=18	=18	=18	=18	=18	=18
4d	ri-	4a]	.	2b	cu-
4e	-co-	4g#X	.	.	.
4f	-vrar	2a	-ra	4a	-ra
2f	quel	.	.	4cc	E
.	.	4r	.	4dd	ri-
2e	che	4gnXi	E	4ee	-co-
.	.	4a	ri-	2ff	-vrar
4d	di	4b	-co-	.	.
=19	=19	=19	=19	=19	=19
2.a	me	4cc	-vrar	2ee	quel
.	.	4cc	quel	.	.
.	.	4cc	che	4ee	che
8gL	.	8bL	.	4ff	di
8fJ	.	8aJ	.	.	.
2e	.	4b	.	2gg	me
.	.	4cc	di	.	.
2d	per-	4dd	me	4ff	per-
.	.	4dd	per-	[4aa	-de-
=20	=20	=20	=20	=20	=20
1e	-de-	4cc	-de-	4aa]	.
.	.	8bL	.	8gg#iL	.
.	.	8aJ	.	8ff#XJ	.
.	.	2b	.	2gg#i	.
2A	-i.	1a	-i.	2aa	-i.
2d	Peg-	.	.	2ffnXi	Peg-
=21	=21	=21	=21	=21	=21
2c	-gio	2r	.	2ee	-gio
2B	per	4r	.	2dd	per
.	.	4d	poi	.	.
2A	te,	4e	che	2cc	te,
.	.	4f	per	.	.
4r	.	4g	al-	4b	poi
4G	poi	4e	-tro a-	[4ee	che
=22	=22	=22	=22	=22	=22
4A	che	2f	-mo-	4ee]	.
4B	per	.	.	4dd	per
4c	al-	4e	-re	4ee	al-
4A	-tro a-	4.a	Per-	4cc	-tro a-
2e	-mo-	.	.	4.b	-mo-
.	.	8a	-di	.	.
.	.	4g#X	quel	.	.
.	.	.	.	16aL	.
.	.	.	.	16bJ	.
4A	-re	2a	fi-	2cc	.
[4a	Per-	.	.	.	.
=23	=23	=23	=23	=23	=23
8a]	.	2e	-do	2b	-re
8a	-di	.	.	.	.
4g#X	quel	.	.	.	.
4a	fi-	4.a	co-	4r	.
4f	-do	.	.	4.a	Per-
.	.	16gnXiL	.	.	.
.	.	16aJ	.	.	.
4d	co-	2b	.	.	.
.	.	.	.	8a	-di
4e	.	.	.	4g#X	quel
4A	-re	2a	-re	4a	fi-
4A	Ch'e-	.	.	4cc	-do
=24	=24	=24	=24	=24	=24
4A	-ra	2r	.	4cc	co-
4B	più	.	.	4dd	.
4c	tuo	4r	.	2ee	-re
4A	che	4e	Ch'e-	.	.
4c	tu	4e	-ra	2r	.
4d	di	4f	più	.	.
4e	te	4g	tuo	4r	.
4c	non	4e	che	4cc	Ch'e-
=25	=25	=25	=25	=25	=25
2f	se-	4.a	tu	4cc	-ra
.	.	.	.	4dd	più
.	.	16gL	.	.	.
.	.	16fJ	.	.	.
4e	-i,	4g	.	4ee	tuo
4A	che	4f	di	4cc	che
4c	tu	4e	te	4ee	tu
4d	di	4a	non	4ff	di
4e	te	8gL	se-	4gg	te
.	.	8cJ	.	.	.
4c	non	[4cc	.	4ee	non
=26	=26	=26	=26	=26	=26
2d	se-	4cc]	.	2ff	se-
.	.	4b	.	.	.
1c	-ti;	1cc	-i;	1ee	-i;
2c	Ma il	2cc	Ma il	2ee	Ma il
=27	=27	=27	=27	=27	=27
2.g	tuo	2b	tuo	2.dd	tuo
.	.	2b	già	.	.
4g	già	.	.	4dd	già
2d	non	4a	non	2dd	non
.	.	4a	per-	.	.
2f	per-	[2a	-d'i-	2cc	per-
=28	=28	=28	=28	=28	=28
1e	-d'i-	2a]	.	2cc	-d'i-
.	.	1g#X	-o	1b	-o
2e	-o	.	.	.	.
2r	.	4r	.	2a	Per-
.	.	4a	Per-	.	.
=29	=29	=29	=29	=29	=29
0r	.	8gnXiL	-ché	2b	-ché
.	.	8f	.	.	.
.	.	8e	.	.	.
.	.	8dJ	.	.	.
.	.	4c	.	2cc	non
.	.	4A	non	.	.
.	.	4B	fu	2dd	fu
.	.	4d	mai	.	.
.	.	4d	mi-	2ee	mai
.	.	4c#X	.	.	.
=30	=30	=30	=30	=30	=30
2r	.	4d	-o,	2a	mi-
.	.	4f	Per-	.	.
2A	Per-	4e	-ché	4a	-o,
.	.	4cnXi	non	4ee	Per-
2B	-ché	2d	fu	8ddL	-ché
.	.	.	.	8cc	.
.	.	.	.	8b	.
.	.	.	.	8aJ	.
2c	non	2e	mai	4g	.
.	.	.	.	4cc	non
=31	=31	=31	=31	=31	=31
2d	fu	8fL	mi-	2.a	fu
.	.	8e	.	.	.
.	.	8f	.	.	.
.	.	8gJ	.	.	.
2d	mai	4a	.	.	.
.	.	8gL	.	2dd	mai
.	.	8fJ	.	.	.
1e	mi-	8gL	.	.	.
.	.	8eJ	.	.	.
.	.	2a	.	4cc	mi-
.	.	.	.	2b	.
.	.	4g#X	.	.	.
=32	=32	=32	=32	=32	=32
0Al	-o.	0al	-o.	0cc#Xl	-o.
==	==	==	==	==	==
*-	*-	*-	*-	*-	*-
!!!system-decoration: [*]
!!!RDF**kern: i = editorial accidental
!!!RDF**kern: l = terminal long
!!!ENC: Emiliano Ricciardi
!!!END: 2018
!!!EED: Ricciardi, Emiliano
!!!EEV: 2018/10/28
!!!YEC: Copyright 2018 Emiliano Ricciardi, All Rights Reserved
!!!ONB: Translated from MusicXML on 2018/10/28 and edited by Craig Stuart Sapp
!!@@BEGIN:	VERSEDATA
!!@SOLERTI:	433
!!@CATALOGNUM:	Trm0433
!!@LAST_MODIFIED: 2020/07/12
!!@ATTRIBUTION:	not secure
!!@TITLE:		Se tu mi lasci, perfida, tuo danno
!!@GENRE:		madrigale
!!@MANUSRC:	none
!!@PRINTSRC:	27, 70, 78, 141, 145, 166, 169
!!@@BEGIN:	VERSES
!!@ABOUTIT:	[Ad istanza di...]
!!@ABOUTEN:	[On behalf of...]
!!@EDITOR:	Solerti, Angelo
!!@EDITION_TITLE: Le Rime di Torquato Tasso
!!@EDITION_LOC:	Bologna
!!@EDITION_PUB:	Romagnoli-Dall’Acqua
!!@EDITION_DATE:  1898-1902
!!@EDITION_VOL:	2
!!@EDITION_PAGE:  467
!!@TRANSLATOR:	Emiliano Ricciardi and Amyrose McCue Gill
!!@VERSE:
!!	Se tu mi lasci, perfida, tuo danno:
!!	Non ti pensar che sia
!!	Misera senza te la vita mia.
!!	Misero ben sarei
!!	Se miseria i' stimassi e non ventura
!!	Perder chi non mi cura
!!	E ricovrar quel che di me perdei.
!!	Misera tu, che per novello amore
!!	Perdi quel fido core
!!	Ch'era più tuo che tu di te non sei;
!!	Ma il tuo già non perd'io
!!	Perché non fu mai mio.
!!@TVERSE:
!!	If you leave me, wicked lady, your loss:
!!	Do not think to yourself that
!!	Miserable without you will my life be.
!!	I would well be miserable
!!	If I were to deem [it] misery and not fortune
!!	To lose she who cares not for me
!!	And to recover that [part] of me which I lost.
!!	You [will be] miserable, as for a new love
!!	You lose that faithful heart
!!	That was more yours than you yourself are.
!!	But yours I am indeed not losing
!!	Because it was never mine.
!!@@END:		VERSES
!!@OTHER_CRIT_ED:   None
!!@ATTRIBUTION_ABOUT:	Not secure
!!		<br>
!!		This poem is attributed to Tasso only in a literary print that was not supervised by the poet and in reprints thereof (see Literary Sources).
!!@DATING:	In or before 1586
!!@DEDICATEE:
!!@COMMENTARY:
!!@@END:		VERSEDATA
!!@@BEGIN:	SETTING
!!@CATALOGNUM:	Trm0433b
!!@RIMETITLE:	Se tu mi lasci, perfida, tuo danno
!!@SOLERTI:	433
!!@COMPOSER:	Stivori, Francesco
!!@PRINCEPSFORMAT: anthology
!!@PRINCEPSTITLE:	Fiori musicali, libro secondo
!!@PRINCEPSLOC:	Venetia
!!@NORMLOC:	Venice
!!@NORMPUB:	Vincenzi & Amadino
!!@NORMPUBSHORT:	Vincenzi & Amadino
!!@PRINCEPSPUB:	Vincenzi
!!@PRINCEPSYEAR:	1588
!!@PRINCEPSRISM:	1588-20
!!@REPRINTS:	1598-10, 1604-13
!!@OVOICES:	3
!!@EXTANTVOICES:	3
!!@PARTBOOKS:	
!!@EXTPARTBOOKS:	
!!@OCLEFS:	G2,C2,C3
!!@OMENSURATION:	C
!!@OKEYSIG:	-
!!@FINAL:	A
!!@TIMPEDITOR:	Ricciardi, Emiliano
!!@NOTE:		
!!@@END:		SETTING
